src/assets/icons/codigo-verificacion.svg

<svg width="31" height="28" viewBox="0 0 31 28" fill="none" xmlns="http://www.w3.org/2000/svg">
<path id="Vector" d="M30.6692 10.9075C29.9538 7.86688 28.0564 5.09938 25.3259 3.115C22.5336 1.09707 19.0636 -0.00159413 15.4876 1.7361e-06C11.2721 1.7361e-06 7.33488 1.46688 4.39127 4.13063C1.54661 6.70813 -0.0123813 10.1113 7.40587e-05 13.7106C0.000170902 16.3496 0.857913 18.9304 2.46692 21.1331L2.76792 21.5112L1.10721 28L9.05095 26.215C9.05095 26.215 9.2101 26.2631 9.32773 26.3037C9.44536 26.3444 10.4577 26.695 11.5316 26.9662C12.4243 27.1912 14.2815 27.5287 15.7367 27.5287C19.8642 27.5287 23.7185 26.085 26.5887 23.4625C29.4334 20.8606 31 17.4013 31 13.7181C31.0002 12.7733 30.8893 11.8312 30.6692 10.9075ZM8.85719 16C8.41925 16 7.99114 15.8827 7.62701 15.6629C7.26287 15.4432 6.97906 15.1308 6.81147 14.7654C6.64387 14.3999 6.60002 13.9978 6.68546 13.6098C6.7709 13.2219 6.98179 12.8655 7.29146 12.5858C7.60114 12.3061 7.99568 12.1156 8.42521 12.0384C8.85474 11.9613 9.29996 12.0009 9.70456 12.1522C10.1092 12.3036 10.455 12.56 10.6983 12.8889C10.9416 13.2178 11.0715 13.6044 11.0715 14C11.0715 14.5304 10.8382 15.0391 10.4229 15.4142C10.0077 15.7893 9.44446 16 8.85719 16ZM15.5 16C15.0621 16 14.634 15.8827 14.2698 15.6629C13.9057 15.4432 13.6219 15.1308 13.4543 14.7654C13.2867 14.3999 13.2429 13.9978 13.3283 13.6098C13.4137 13.2219 13.6246 12.8655 13.9343 12.5858C14.244 12.3061 14.6385 12.1156 15.0681 12.0384C15.4976 11.9613 15.9428 12.0009 16.3474 12.1522C16.752 12.3036 17.0978 12.56 17.3411 12.8889C17.5845 13.2178 17.7143 13.6044 17.7143 14C17.7143 14.5304 17.481 15.0391 17.0658 15.4142C16.6505 15.7893 16.0873 16 15.5 16ZM22.1429 16C21.7049 16 21.2768 15.8827 20.9127 15.6629C20.5486 15.4432 20.2647 15.1308 20.0971 14.7654C19.9296 14.3999 19.8857 13.9978 19.9711 13.6098C20.0566 13.2219 20.2675 12.8655 20.5771 12.5858C20.8868 12.3061 21.2814 12.1156 21.7109 12.0384C22.1404 11.9613 22.5856 12.0009 22.9902 12.1522C23.3949 12.3036 23.7407 12.56 23.984 12.8889C24.2273 13.2178 24.3572 13.6044 24.3572 14C24.3572 14.5304 24.1239 15.0391 23.7086 15.4142C23.2934 15.7893 22.7301 16 22.1429 16Z" fill="black"/>
</svg>

<svg xmlns="http://www.w3.org/2000/svg" fill="none" viewBox="0 0 31 28"><path fill="#000" d="M30.7 11C30 7.8 28 5 25.3 3c-2.8-2-6.2-3.1-9.8-3.1C11.3-.1 7.3 1.4 4.4 4a12.6 12.6 0 0 0-2 17l.4.4L1 28l8-1.8.2.1 2.2.7c1 .2 2.8.5 4.2.5 4.2 0 8-1.4 10.9-4a13.1 13.1 0 0 0 4-12.6ZM8.9 16c-.5 0-1-.1-1.3-.3a2 2 0 0 1-.8-1c-.2-.3-.2-.7-.1-1 0-.5.3-.8.6-1.1.3-.3.7-.5 1.1-.6.5 0 .9 0 1.3.2.4.1.8.4 1 .7.2.3.4.7.4 1.1 0 .5-.3 1-.7 1.4-.4.4-1 .6-1.5.6Zm6.6 0c-.4 0-.9-.1-1.2-.3a2 2 0 0 1-.8-1c-.2-.3-.3-.7-.2-1 .1-.5.3-.8.6-1.1a2.4 2.4 0 0 1 2.4-.4c.5.1.8.4 1 .7.3.3.4.7.4 1.1 0 .5-.2 1-.6 1.4-.4.4-1 .6-1.6.6Zm6.6 0-1.2-.3a2 2 0 0 1-.8-1c-.2-.3-.2-.7-.1-1 0-.5.3-.8.6-1.1.3-.3.7-.5 1.1-.6.4 0 .9 0 1.3.2.4.1.7.4 1 .7.2.3.4.7.4 1.1 0 .5-.3 1-.7 1.4-.4.4-1 .6-1.6.6Z"/></svg>
